; <IceSL Oct 11 2018 16:47:16>
;START_OF_HEADER
;HEADER_VERSION:0.1
;FLAVOR:Griffin
;GENERATOR.NAME:IceSL
;GENERATOR.VERSION:2.1
;GENERATOR.BUILD_DATE:2017-07-28
;TARGET_MACHINE.NAME:Ultimaker 3
;EXTRUDER_TRAIN.0.INITIAL_TEMPERATURE:210
;EXTRUDER_TRAIN.0.MATERIAL.VOLUME_USED:4206.6447965013
;EXTRUDER_TRAIN.0.MATERIAL.GUID:506c9f0d-e3aa-4bd4-b2d2-23e2425b1aa9
;EXTRUDER_TRAIN.0.NOZZLE.DIAMETER:0.4
;EXTRUDER_TRAIN.1.INITIAL_TEMPERATURE:0
;EXTRUDER_TRAIN.1.MATERIAL.VOLUME_USED:0
;EXTRUDER_TRAIN.1.MATERIAL.GUID:506c9f0d-e3aa-4bd4-b2d2-23e2425b1aa9
;EXTRUDER_TRAIN.1.NOZZLE.DIAMETER:0.4
;BUILD_PLATE.INITIAL_TEMPERATURE:60
;PRINT.TIME:1102
;PRINT.SIZE.MIN.X:0
;PRINT.SIZE.MIN.Y:0
;PRINT.SIZE.MIN.Z:0
;PRINT.SIZE.MAX.X:132.901
;PRINT.SIZE.MAX.Y:119.900
;PRINT.SIZE.MAX.Z:25.250
;END_OF_HEADER
; add_brim : 	False
; add_raft : 	False
; bed_size_x_mm : 	215
; bed_size_y_mm : 	195
; bed_temp_degree_c : 	60
; brim_distance_to_print_mm : 	1
; brim_num_contours : 	2
; cavitiy_num_iterations : 	5
; cavity_brush : 	0
; cavity_tearing_method : 	Cross
; cover_thickness_mm_0 : 	1.2
; enable_active_temperature_control : 	True
; enable_curved_covers_0 : 	True
; enable_fan : 	True
; enable_fan_first_layer : 	False
; enable_fit_single_path : 	True
; extruder_0 : 	0
; extruder_count : 	2
; extruder_degrees_per_sec_0 : 	2
; extruder_mix_count_0 : 	1
; extruder_mix_ratios_0 : 	<error>
; extruder_purge_volume_mm3 : 	24
; extruder_swap_at_location : 	True
; extruder_swap_location_x_mm : 	201
; extruder_swap_location_y_mm : 	179
; extruder_swap_retract_length_mm : 	16
; extruder_swap_retract_speed_mm_per_sec : 	30
; extruder_swap_zlift_mm : 	1
; extruder_temp_degree_c_0 : 	210
; fan_speed_percent : 	100
; fan_speed_percent_on_bridges : 	100
; filament_diameter_mm_0 : 	2.85
; filament_priming_mm_0 : 	6.5
; fill_tiny_gaps_0 : 	True
; first_layer_print_speed_mm_per_sec : 	40
; first_layer_saved : 	0
; flow_dampener_e_length_mm : 	3
; flow_dampener_path_length_mm : 	3
; flow_multiplier_0 : 	1
; gen_cavity : 	True
; gen_shield : 	False
; gen_supports : 	False
; gen_tower : 	True
; idle_extruder_temp_degree_c_0 : 	100
; infill_angle_0 : 	0
; infill_extruder_0 : 	0
; infill_percentage_0 : 	20
; infill_type_0 : 	Default
; kgon_base_cell_size_mm_0 : 	6
; kgon_min_angle_0 : 	45
; kgon_norm_alpha_0 : 	0.5
; kgon_num_vertices_0 : 	12
; kgon_x_shrink_0 : 	1
; last_layer_saved : 	0
; material_mixing_enable_optimizer : 	True
; micro_mixing_field : 	
; mixing_shield_speed_multiplier : 	1.5
; mixing_wipe_length_mm : 	3
; nozzle_diameter_mm : 	0.4
; num_shells_0 : 	1
; path_width_speed_adjustement_exponent : 	3
; perimeter_print_speed_mm_per_sec : 	50
; priming_mm_per_sec : 	40
; print_kickback_length_mm : 	3
; print_perimeter_0 : 	True
; print_speed_microlayers_mm_per_sec : 	200
; print_speed_mm_per_sec : 	60
; printer : 	ultimaker3
; process_thin_features : 	True
; raft_spacing : 	1
; save_layer_subset : 	False
; seam_location_field : 	
; shield_distance_to_part_mm : 	2
; shield_num_contours : 	1
; slicing_algorithm : 	Auto select
; speed_multiplier_0 : 	1
; support_algorithm : 	Bridges
; support_anchor_diameter : 	7.2
; support_extruder : 	0
; support_flow_multiplier : 	1
; support_infills : 	False
; support_interdiction_field : 	
; support_max_bridge_len_mm : 	10
; support_max_connector_height : 	8
; support_min_connector_height : 	1
; support_pillar_cross_length : 	2.5
; support_print_speed_mm_per_sec : 	20
; support_spacing_min_mm : 	2
; support_wing_min_width : 	5
; thickening_ratio : 	1.25
; tile_size_mm : 	30
; tower_brim_num_contours : 	12
; tower_side_x_mm : 	10
; tower_side_y_mm : 	5
; travel_avoid_top_covers : 	False
; travel_max_length_without_retract : 	20
; travel_speed_mm_per_sec : 	120
; travel_straight : 	False
; use_different_thickness_first_layer : 	False
; xy_max_deviation_mm : 	0.025
; xy_mm_per_pixels : 	0.001
; z_layer_height_first_layer_mm : 	0.3
; z_layer_height_mm : 	0.25
T0
;prep_extruder
G0 Z3
M109 T0 S210
G0 F15000 X9 Y6
G280
G0 Z0
G92 E0
M106 S0
;(<layer 0>)
G0 F600 Z0.250000
;travel
M204 S3000
M205 X20
G0 F7200.000 X89.873 Y87.126
;shell
M204 S1000
M205 X10
G1 F2400.000 X90.598 Y87.279 E0.011615
G1 F2400.000 X90.967 Y87.478 E0.018187
G1 F2400.000 X91.173 Y87.481 E0.021416
G1 F2400.000 X91.272 Y87.315 E0.024446
G1 F2400.000 X91.294 Y86.637 E0.035080
G1 F2400.000 X91.763 Y84.344 E0.071768
G1 F2400.000 X91.931 Y83.945 E0.078554
G1 F2400.000 X92.694 Y82.812 E0.099966
G1 F2400.000 X93.005 Y82.459 E0.107341
G1 F2400.000 X93.935 Y81.958 E0.123900
G1 F2400.000 X94.328 Y81.627 E0.131954
G1 F2400.000 X94.575 Y81.190 E0.139823
G1 F2400.000 X94.640 Y80.894 E0.144573
G1 F2400.000 X94.639 Y80.590 E0.149339
G1 F2400.000 X94.549 Y80.284 E0.154339
G1 F2400.000 X94.377 Y79.998 E0.159570
G1 F2400.000 X94.115 Y79.772 E0.164994
G1 F2400.000 X93.787 Y79.627 E0.170615
G1 F2400.000 X93.417 Y79.583 E0.176456
G1 F2400.000 X93.043 Y79.641 E0.182389
G1 F2400.000 X92.699 Y79.802 E0.188343
G1 F2400.000 X92.435 Y80.016 E0.193670
G1 F2400.000 X92.168 Y80.381 E0.200759
G1 F2400.000 X92.004 Y80.804 E0.207870
G1 F2400.000 X91.952 Y81.837 E0.224084
G1 F2400.000 X91.829 Y82.278 E0.231260
G1 F2400.000 X91.623 Y82.580 E0.236991
G1 F2400.000 X91.153 Y82.939 E0.246262
G1 F2400.000 X90.709 Y83.100 E0.253665
G1 F2400.000 X90.205 Y83.126 E0.261576
G1 F2400.000 X89.524 Y82.960 E0.272563
G1 F2400.000 X89.001 Y82.648 E0.282110
G1 F2400.000 X88.628 Y82.217 E0.291045
G1 F2400.000 X88.178 Y81.421 E0.305378
G1 F2400.000 X87.861 Y80.720 E0.317438
G1 F2400.000 X87.701 Y79.925 E0.330150
G1 F2400.000 X87.699 Y79.477 E0.337172
G1 F2400.000 X87.856 Y78.657 E0.350260
G1 F2400.000 X87.867 Y78.316 E0.355608
G1 F2400.000 X87.760 Y77.933 E0.361841
G1 F2400.000 X87.405 Y77.560 E0.369913
G1 F2400.000 X87.155 Y77.433 E0.374309
G1 F2400.000 X86.865 Y77.358 E0.379004
G1 F2400.000 X86.496 Y77.348 E0.384791
G1 F2400.000 X86.215 Y77.398 E0.389265
G1 F2400.000 X85.933 Y77.519 E0.394075
G1 F2400.000 X85.685 Y77.713 E0.399011
G1 F2400.000 X85.482 Y77.964 E0.404071
G1 F2400.000 X85.344 Y78.235 E0.408838
G1 F2400.000 X85.266 Y78.749 E0.416987
G1 F2400.000 X85.372 Y79.145 E0.423413
G1 F2400.000 X85.755 Y79.543 E0.432072
G1 F2400.000 X86.347 Y79.892 E0.442844
G1 F2400.000 X86.864 Y80.405 E0.454261
G1 F2400.000 X87.448 Y81.445 E0.472958
G1 F2400.000 X87.771 Y82.215 E0.486047
G1 F2400.000 X87.882 Y82.621 E0.492645
G1 F2400.000 X87.861 Y83.079 E0.499832
G1 F2400.000 X87.577 Y83.800 E0.511979
G1 F2400.000 X87.232 Y84.356 E0.522236
G1 F2400.000 X87.085 Y84.490 E0.525354
G1 F2400.000 X86.841 Y84.621 E0.529695
G1 F2400.000 X86.657 Y84.666 E0.532665
G1 F2400.000 X85.766 Y84.577 E0.546701
G1 F2400.000 X85.078 Y84.401 E0.557833
G1 F2400.000 X84.719 Y84.244 E0.563975
G1 F2400.000 X83.939 Y83.757 E0.578389
G1 F2400.000 X83.530 Y83.650 E0.585016
G1 F2400.000 X83.113 Y83.771 E0.591823
G1 F2400.000 X82.691 Y84.198 E0.601233
G1 F2400.000 X82.509 Y84.769 E0.610628
G1 F2400.000 X82.579 Y85.262 E0.618433
G1 F2400.000 X82.695 Y85.461 E0.622044
G1 F2400.000 X83.020 Y85.733 E0.628687
G1 F2400.000 X83.428 Y85.858 E0.635376
G1 F2400.000 X83.802 Y85.837 E0.641248
G1 F2400.000 X84.809 Y85.367 E0.658668
G1 F2400.000 X85.152 Y85.248 E0.664359
G1 F2400.000 X86.198 Y85.162 E0.680811
G1 F2400.000 X87.014 Y85.278 E0.693731
G1 F2400.000 X87.425 Y85.456 E0.700752
G1 F2400.000 X87.944 Y85.811 E0.710608
G1 F2400.000 X88.360 Y86.194 E0.719472
G1 F2400.000 X89.227 Y86.819 E0.736226
G1 F2400.000 X89.792 Y87.088 E0.746036
;travel
M204 S3000
M205 X20
G0 F7200.000 X89.873 Y87.126
G0 F7200.000 X91.386 Y86.964
G0 F7200.000 X91.451 Y88.163
;perimeter
M204 S500
M205 X5
G1 F2400.000 X91.563 Y88.103 E0.748028
G1 F2400.000 X91.652 Y87.940 E0.750939
G1 F2400.000 X91.694 Y86.659 E0.771030
G1 F2400.000 X92.149 Y84.450 E0.806384
G1 F2400.000 X92.286 Y84.130 E0.811841
G1 F2400.000 X93.024 Y83.040 E0.832475
G1 F2400.000 X93.275 Y82.757 E0.838405
G1 F2400.000 X94.180 Y82.283 E0.854419
G1 F2400.000 X94.651 Y81.877 E0.864166
G1 F2400.000 X94.821 Y81.624 E0.868944
G1 F2400.000 X94.967 Y81.292 E0.874630
G1 F2400.000 X95.045 Y80.910 E0.880741
G1 F2400.000 X95.038 Y80.497 E0.887216
G1 F2400.000 X94.907 Y80.089 E0.893933
G1 F2400.000 X94.662 Y79.699 E0.901153
G1 F2400.000 X94.301 Y79.409 E0.908412
G1 F2400.000 X93.858 Y79.223 E0.915943
G1 F2400.000 X93.373 Y79.177 E0.923580
G1 F2400.000 X92.888 Y79.262 E0.931298
G1 F2400.000 X92.459 Y79.474 E0.938799
G1 F2400.000 X92.120 Y79.759 E0.945742
G1 F2400.000 X91.797 Y80.214 E0.954489
G1 F2400.000 X91.596 Y80.754 E0.963521
G1 F2400.000 X91.553 Y81.795 E0.979853
G1 F2400.000 X91.421 Y82.195 E0.986456
G1 F2400.000 X90.943 Y82.598 E0.996256
G1 F2400.000 X90.618 Y82.710 E1.001645
G1 F2400.000 X90.229 Y82.725 E1.007747
G1 F2400.000 X89.656 Y82.581 E1.017008
G1 F2400.000 X89.244 Y82.329 E1.024579
G1 F2400.000 X88.951 Y81.980 E1.031722
G1 F2400.000 X88.538 Y81.245 E1.044938
G1 F2400.000 X88.233 Y80.571 E1.056534
G1 F2400.000 X88.100 Y79.882 E1.067534
G1 F2400.000 X88.099 Y79.498 E1.073554
G1 F2400.000 X88.259 Y78.682 E1.086588
G1 F2400.000 X88.268 Y78.272 E1.093017
G1 F2400.000 X88.221 Y77.981 E1.097638
G1 F2400.000 X88.096 Y77.704 E1.102401
G1 F2400.000 X87.885 Y77.435 E1.107760
G1 F2400.000 X87.604 Y77.206 E1.113443
G1 F2400.000 X87.270 Y77.045 E1.119255
G1 F2400.000 X86.897 Y76.954 E1.125273
G1 F2400.000 X86.486 Y76.943 E1.131718
G1 F2400.000 X86.071 Y77.017 E1.138326
G1 F2400.000 X85.698 Y77.187 E1.144752
G1 F2400.000 X85.380 Y77.445 E1.151171
G1 F2400.000 X85.129 Y77.767 E1.157571
G1 F2400.000 X84.960 Y78.108 E1.163537
G1 F2400.000 X84.860 Y78.793 E1.174388
G1 F2400.000 X84.912 Y79.089 E1.179099
G1 F2400.000 X85.029 Y79.359 E1.183712
G1 F2400.000 X85.190 Y79.589 E1.188112
G1 F2400.000 X85.538 Y79.884 E1.195264
G1 F2400.000 X86.129 Y80.228 E1.205983
G1 F2400.000 X86.552 Y80.656 E1.215416
G1 F2400.000 X86.806 Y81.062 E1.222923
G1 F2400.000 X87.400 Y82.365 E1.245371
G1 F2400.000 X87.486 Y82.686 E1.250580
G1 F2400.000 X87.466 Y83.009 E1.255653
G1 F2400.000 X87.210 Y83.640 E1.266327
G1 F2400.000 X86.850 Y84.163 E1.276280
G1 F2400.000 X86.606 Y84.266 E1.280431
G1 F2400.000 X85.837 Y84.183 E1.292556
G1 F2400.000 X85.201 Y84.020 E1.302848
G1 F2400.000 X84.888 Y83.882 E1.308210
G1 F2400.000 X84.094 Y83.381 E1.322927
G1 F2400.000 X83.774 Y83.272 E1.328226
G1 F2400.000 X83.483 Y83.243 E1.332810
G1 F2400.000 X83.170 Y83.302 E1.337803
G1 F2400.000 X82.859 Y83.447 E1.343181
G1 F2400.000 X82.498 Y83.783 E1.350912
G1 F2400.000 X82.329 Y84.017 E1.355437
G1 F2400.000 X82.211 Y84.285 E1.360027
G1 F2400.000 X82.099 Y84.768 E1.367799
G1 F2400.000 X82.124 Y85.130 E1.373487
G1 F2400.000 X82.218 Y85.457 E1.378821
G1 F2400.000 X82.390 Y85.728 E1.383852
G1 F2400.000 X82.606 Y85.944 E1.388641
G1 F2400.000 X82.852 Y86.101 E1.393215
G1 F2400.000 X83.132 Y86.208 E1.397914
G1 F2400.000 X83.690 Y86.265 E1.406706
G1 F2400.000 X83.950 Y86.216 E1.410854
G1 F2400.000 X84.963 Y85.736 E1.428425
G1 F2400.000 X85.271 Y85.630 E1.433531
G1 F2400.000 X86.196 Y85.563 E1.448069
G1 F2400.000 X86.924 Y85.669 E1.459601
G1 F2400.000 X87.246 Y85.814 E1.465137
G1 F2400.000 X87.704 Y86.132 E1.473877
G1 F2400.000 X88.113 Y86.511 E1.482618
G1 F2400.000 X89.040 Y87.177 E1.500510
G1 F2400.000 X89.768 Y87.519 E1.513119
G1 F2400.000 X90.484 Y87.664 E1.524570
G1 F2400.000 X91.249 Y88.120 E1.538531
G1 F2400.000 X91.350 Y88.141 E1.540149
;travel
M204 S3000
M205 X20
G0 F7200.000 X91.451 Y88.163
G0 F7200.000 X91.386 Y86.964
G0 F7200.000 X86.791 Y77.752
;shell
M204 S1000
M205 X10
G1 F2400.000 X86.548 Y77.746 E1.543960
G1 F2400.000 X86.308 Y77.789 E1.547782
G1 F2400.000 X86.122 Y77.872 E1.550974
G1 F2400.000 X85.953 Y78.010 E1.554394
G1 F2400.000 X85.809 Y78.193 E1.558045
G1 F2400.000 X85.712 Y78.393 E1.561529
G1 F2400.000 X85.698 Y78.436 E1.562238
G1 F2400.000 X85.666 Y78.758 E1.567310
G1 F2400.000 X85.683 Y78.854 E1.568839
G1 F2400.000 X85.731 Y78.966 E1.570749
G1 F2400.000 X85.788 Y79.045 E1.572276
G1 F2400.000 X86.001 Y79.227 E1.576667
G1 F2400.000 X86.570 Y79.560 E1.587002
G1 F2400.000 X86.658 Y79.624 E1.588708
G1 F2400.000 X86.887 Y79.819 E1.593422
G1 F2400.000 X86.939 Y79.871 E1.594575
G1 F2400.000 X87.034 Y79.985 E1.596901
G1 F2400.000 X87.298 Y79.890 E1.601300
G1 F2400.000 X87.299 Y79.456 E1.608103
G1 F2400.000 X87.311 Y79.335 E1.610009
G1 F2400.000 X87.460 Y78.599 E1.621780
G1 F2400.000 X87.466 Y78.324 E1.626092
G1 F2400.000 X87.448 Y78.213 E1.627854
G1 F2400.000 X87.405 Y78.117 E1.629503
G1 F2400.000 X87.311 Y77.999 E1.631868
G1 F2400.000 X87.174 Y77.887 E1.634642
G1 F2400.000 X87.001 Y77.803 E1.637657
G1 F2400.000 X86.791 Y77.752 E1.641044
;travel
M204 S3000
M205 X20
G0 F7200.000 X86.737 Y78.151
;shell
M204 S1000
M205 X10
G1 F2400.000 X86.580 Y78.147 E1.643506
G1 F2400.000 X86.428 Y78.173 E1.645923
G1 F2400.000 X86.334 Y78.215 E1.647537
G1 F2400.000 X86.242 Y78.291 E1.649408
G1 F2400.000 X86.150 Y78.406 E1.651716
G1 F2400.000 X86.091 Y78.531 E1.653883
G1 F2400.000 X86.067 Y78.758 E1.657461
G1 F2400.000 X86.235 Y78.901 E1.660919
G1 F2400.000 X86.910 Y79.296 E1.673179
G1 F2400.000 X87.061 Y78.556 E1.685018
G1 F2400.000 X87.066 Y78.313 E1.688828
G1 F2400.000 X86.958 Y78.228 E1.690982
G1 F2400.000 X86.869 Y78.182 E1.692552
G1 F2400.000 X86.737 Y78.151 E1.694678
;retract
G0 F2400 E-4.805
;travel
M204 S3000
M205 X20
G0 F7200.000 X87.804 Y82.668
G0 F7200.000 X87.485 Y83.770
G0 F7200.000 X87.047 Y84.405
G0 F7200.000 X86.641 Y84.577
G0 F7200.000 X85.103 Y84.307
G0 F7200.000 X83.826 Y83.638
G0 F7200.000 X83.602 Y84.058
;prime
G0 F2400 E1.695
;shell
M204 S1000
M205 X10
G1 F2400.000 X83.520 Y84.050 E1.695969
G1 F2400.000 X83.419 Y84.069 E1.697580
G1 F2400.000 X83.311 Y84.121 E1.699459
G1 F2400.000 X83.094 Y84.323 E1.704106
G1 F2400.000 X83.029 Y84.413 E1.705847
G1 F2400.000 X82.974 Y84.537 E1.707973
G1 F2400.000 X82.905 Y84.832 E1.712722
G1 F2400.000 X82.917 Y84.988 E1.715175
G1 F2400.000 X82.954 Y85.123 E1.717369
G1 F2400.000 X83.021 Y85.228 E1.719321
G1 F2400.000 X83.108 Y85.315 E1.721250
G1 F2400.000 X83.220 Y85.385 E1.723321
G1 F2400.000 X83.344 Y85.434 E1.725411
G1 F2400.000 X83.486 Y85.462 E1.727679
G1 F2400.000 X83.617 Y85.463 E1.729733
G1 F2400.000 X83.700 Y85.448 E1.731055
G1 F2400.000 X84.751 Y84.952 E1.749272
G1 F2400.000 X84.749 Y84.696 E1.753285
G1 F2400.000 X84.550 Y84.607 E1.756703
G1 F2400.000 X84.461 Y84.562 E1.758266
G1 F2400.000 X83.745 Y84.107 E1.771564
G1 F2400.000 X83.602 Y84.058 E1.773934
;travel
M204 S3000
M205 X20
G0 F7200.000 X83.903 Y84.682
;shell
M204 S1000
M205 X10
G1 F2400.000 X83.542 Y84.452 E1.780643
G1 F2400.000 X83.384 Y84.599 E1.784026
G1 F2400.000 X83.355 Y84.665 E1.785156
G1 F2400.000 X83.274 Y85.017 E1.790818
G1 F2400.000 X83.566 Y85.068 E1.795465
G1 F2400.000 X83.888 Y84.918 E1.801033
G1 F2400.000 X83.903 Y84.682 E1.804740
;travel
M204 S3000
M205 X20
G0 F7200.000 X89.789 Y84.687
;shell
M204 S1000
M205 X10
G1 F2400.000 X89.431 Y84.592 E1.810546
G1 F2400.000 X89.289 Y84.893 E1.815763
G1 F2400.000 X89.919 Y85.347 E1.827936
G1 F2400.000 X90.052 Y84.716 E1.838044
G1 F2400.000 X89.789 Y84.687 E1.842192
;travel
M204 S3000
M205 X20
G0 F7200.000 X89.131 Y84.097
;shell
M204 S1000
M205 X10
G1 F2400.000 X88.812 Y83.960 E1.847634
G1 F2400.000 X88.671 Y84.298 E1.853375
G1 F2400.000 X88.600 Y84.445 E1.855934
G1 F2400.000 X88.441 Y84.692 E1.860539
G1 F2400.000 X88.668 Y84.854 E1.864910
G1 F2400.000 X88.794 Y84.957 E1.867461
G1 F2400.000 X89.127 Y85.269 E1.874614
G1 F2400.000 X89.857 Y85.793 E1.888700
G1 F2400.000 X90.204 Y85.955 E1.894703
G1 F2400.000 X90.543 Y84.318 E1.920908
G1 F2400.000 X90.145 Y84.326 E1.927148
G1 F2400.000 X89.865 Y84.293 E1.931568
G1 F2400.000 X89.131 Y84.097 E1.943477
;travel
M204 S3000
M205 X20
G0 F7200.000 X89.028 Y83.617
;shell
M204 S1000
M205 X10
G1 F2400.000 X88.630 Y83.359 E1.950912
G1 F2400.000 X88.305 Y84.135 E1.964100
G1 F2400.000 X88.250 Y84.250 E1.966098
G1 F2400.000 X87.898 Y84.799 E1.976321
G1 F2400.000 X88.425 Y85.172 E1.986442
G1 F2400.000 X88.530 Y85.258 E1.988569
G1 F2400.000 X88.869 Y85.576 E1.995855
G1 F2400.000 X89.651 Y86.138 E2.010951
G1 F2400.000 X90.150 Y86.371 E2.019583
